%
G21 ; Set units to mm
G90 ; Absolute positioning
G28 ; Home all axes
G0 A90 ; Rotate A to 90 degrees (tool perpendicular to bed)
G0 X-10.000 Y-2.000 Z-35.000 F800
G1 X10.000 Y-2.000 Z-35.000 F200
G0 X10.000 Y-2.000 Z-34.700 F800
G1 X-10.000 Y-2.000 Z-34.700 F200
G0 X-10.000 Y-2.000 Z-34.400 F800
G1 X10.000 Y-2.000 Z-34.400 F200
G0 X10.000 Y-2.000 Z-34.100 F800
G1 X-10.000 Y-2.000 Z-34.100 F200
G0 X-10.000 Y-2.000 Z-33.800 F800
G1 X10.000 Y-2.000 Z-33.800 F200
G0 X10.000 Y-2.000 Z-33.500 F800
G1 X-10.000 Y-2.000 Z-33.500 F200
G0 X-10.000 Y-2.000 Z-33.200 F800
G1 X10.000 Y-2.000 Z-33.200 F200
G0 X10.000 Y-2.000 Z-32.900 F800
G1 X-10.000 Y-2.000 Z-32.900 F200
G0 X-10.000 Y-2.000 Z-32.600 F800
G1 X10.000 Y-2.000 Z-32.600 F200
G0 X10.000 Y-2.000 Z-32.300 F800
G1 X-10.000 Y-2.000 Z-32.300 F200
; Move to presentation position
G0 Z0 ; Move to Z=0
G53 X0 Y0 Z0 A0 B0 ; Move to machine zero
M30 ; End of program
%